X:158
T:Waltz,A. JGi.158
M:3/8
L:1/8
Q:3/8=60
S:Joshua Gibbons MS,1823,Tealby,Lincs.
R:waltz
O:Tealby,Lincolnshire
Z:VMP/R.Greig, 2009
K:C
G|GEc|c2B|AFf|gfe|dBg|g2f|e/f/g/f/e/d/|c2G|
GEc|c2B|AFf|d2c|B/c/d/c/B/A/|G/B/A/c/B/d/|c/B/c/e/d/B/|c2:|
|:g|fdB|GFD|EGc|ecg|fdB|GFD|EFc|ecg|
GEc|c2B|AFd|d2c|A/c/d/c/B/A/|G/B/A/c/B/d/|c/B/c/e/d/B/|c2:|

